X:1162
T:Parson Upon Dorothy
C:Dancing Master, 1652
F:https://tunearch.org/wiki/Parson_upon_Dorothy
S:John Playford. 2nd edition of the Dancing Master (1652, p. 83)
N:NB1 Added pickup in last measure.
Z:transcriber unknown.  transcription edited by Eric Conrad.
M:C|
L:1/8
K:Gmin
P:A
D2|G3G ABcA|B3c B2d2|c2B2 ABcA|B4 B2:|
P:B
|:d2|c2B2 ABcA|B3c B2d2|c2B2 ABcA|B4 B2:|
P:C
|:d2|c3B A2c2|B3A G2B2|A2G2G2F2|G4 "_NB1"G2:|

